icons/Discord.svg

<svg width="614" height="256" viewBox="0 0 614 256" fill="none" xmlns="http://www.w3.org/2000/svg">
<g clip-path="url(#clip0_1_2)">
<path d="M470.094 0H143.906C64.429 0 0 26.8629 0 60V196C0 229.137 64.429 256 143.906 256H470.094C549.571 256 614 229.137 614 196V60C614 26.8629 549.571 0 470.094 0Z" fill="#5865F2"/>
<mask id="mask0_1_2" style="mask-type:luminance" maskUnits="userSpaceOnUse" x="58" y="51" width="200" height="155">
<path d="M258 51H58V205.93H258V51Z" fill="white"/>
</mask>
<g mask="url(#mask0_1_2)">
<path d="M227.308 64.7966C214.561 58.9476 200.892 54.6383 186.599 52.1701C186.339 52.1225 186.079 52.2415 185.945 52.4796C184.187 55.6064 182.239 59.6856 180.876 62.8918C165.503 60.5904 150.21 60.5904 135.153 62.8918C133.789 59.6143 131.771 55.6064 130.005 52.4796C129.871 52.2495 129.611 52.1305 129.35 52.1701C115.066 54.6304 101.396 58.9397 88.6411 64.7966C88.5307 64.8442 88.4361 64.9236 88.3732 65.0267C62.4449 103.763 55.3421 141.547 58.8265 178.863C58.8423 179.046 58.9447 179.22 59.0867 179.331C76.1934 191.894 92.7642 199.521 109.027 204.576C109.288 204.655 109.563 204.56 109.729 204.346C113.576 199.092 117.005 193.553 119.946 187.728C120.119 187.386 119.953 186.982 119.599 186.847C114.159 184.783 108.98 182.268 103.998 179.411C103.604 179.181 103.572 178.617 103.935 178.347C104.983 177.561 106.032 176.744 107.033 175.919C107.214 175.768 107.466 175.736 107.679 175.831C140.411 190.775 175.846 190.775 208.191 175.831C208.404 175.728 208.657 175.76 208.846 175.911C209.847 176.736 210.895 177.561 211.952 178.347C212.314 178.617 212.291 179.181 211.897 179.411C206.914 182.323 201.735 184.783 196.288 186.839C195.933 186.974 195.775 187.386 195.949 187.728C198.952 193.545 202.381 199.084 206.157 204.338C206.315 204.56 206.599 204.655 206.859 204.576C223.201 199.521 239.772 191.894 256.879 179.331C257.028 179.22 257.123 179.053 257.139 178.871C261.309 135.73 250.154 98.2554 227.568 65.0346C227.513 64.9236 227.419 64.8442 227.308 64.7966ZM124.834 156.142C114.979 156.142 106.859 147.095 106.859 135.984C106.859 124.873 114.822 115.826 124.834 115.826C134.924 115.826 142.965 124.953 142.807 135.984C142.807 147.095 134.845 156.142 124.834 156.142ZM191.29 156.142C181.435 156.142 173.316 147.095 173.316 135.984C173.316 124.873 181.278 115.826 191.29 115.826C201.38 115.826 209.421 124.953 209.264 135.984C209.264 147.095 201.38 156.142 191.29 156.142Z" fill="white"/>
</g>
<path d="M344.266 116.406L358.211 96.6016H375.73L354.461 127.715L376.492 160H358.914L344.324 139.258L329.852 160H312.215L334.246 127.715L313.035 96.6016H330.555L344.266 116.406ZM442.879 127.539C442.879 133.047 442.234 137.91 440.945 142.129C439.695 146.309 437.879 149.805 435.496 152.617C433.113 155.469 430.203 157.617 426.766 159.062C423.328 160.508 419.461 161.23 415.164 161.23C410.906 161.23 407.059 160.508 403.621 159.062C400.184 157.617 397.273 155.469 394.891 152.617C392.469 149.805 390.594 146.309 389.266 142.129C387.977 137.91 387.332 133.047 387.332 127.539V107.148C387.332 101.641 387.977 96.7969 389.266 92.6172C390.555 88.3984 392.41 84.8633 394.832 82.0117C397.215 79.1992 400.105 77.0703 403.504 75.625C406.941 74.1797 410.789 73.457 415.047 73.457C419.344 73.457 423.211 74.1797 426.648 75.625C430.086 77.0703 433.016 79.1992 435.438 82.0117C437.82 84.8633 439.656 88.3984 440.945 92.6172C442.234 96.7969 442.879 101.641 442.879 107.148V127.539ZM403.738 120.508L426.473 103.574C426.395 100.371 426.043 97.6367 425.418 95.3711C424.832 93.0664 423.953 91.2305 422.781 89.8633C421.883 88.7695 420.77 87.9688 419.441 87.4609C418.152 86.9141 416.688 86.6406 415.047 86.6406C413.211 86.6406 411.59 86.9922 410.184 87.6953C408.816 88.3594 407.664 89.375 406.727 90.7422C405.711 92.1875 404.949 94.0625 404.441 96.3672C403.973 98.6719 403.738 101.406 403.738 104.57V114.004C403.738 115.879 403.738 117.129 403.738 117.754C403.738 118.379 403.738 119.297 403.738 120.508ZM426.473 130V120.098C426.473 118.809 426.473 117.871 426.473 117.285C426.473 116.66 426.473 115.781 426.473 114.648L403.738 131.523C403.816 134.102 404.07 136.387 404.5 138.379C404.969 140.371 405.613 142.031 406.434 143.359C407.371 144.961 408.562 146.152 410.008 146.934C411.453 147.715 413.172 148.105 415.164 148.105C417 148.105 418.621 147.773 420.027 147.109C421.434 146.406 422.605 145.352 423.543 143.945C424.52 142.461 425.242 140.566 425.711 138.262C426.219 135.918 426.473 133.164 426.473 130ZM480.32 146.934H517.645V160H458.055V149.922L493.562 109.844H458.875V96.6016H516.18V106.387L480.32 146.934Z" fill="white"/>
</g>
<defs>
<clipPath id="clip0_1_2">
<rect width="614" height="256" fill="white"/>
</clipPath>
</defs>
</svg>

<?xml version="1.0"?>
<svg width="614" height="256" xmlns="http://www.w3.org/2000/svg" xmlns:svg="http://www.w3.org/2000/svg">
 <defs>
  <clipPath id="clip0_1_2">
   <rect fill="white" height="256" id="svg_1" width="614"/>
  </clipPath>
 </defs>
 <g class="layer">
  <title>Layer 1</title>
  <g clip-path="url(#clip0_1_2)" id="svg_2">
   <path d="m470.09,0l-326.18,0c-79.48,0 -143.91,26.86 -143.91,60l0,136c0,33.14 64.43,60 143.91,60l326.18,0c79.48,0 143.91,-26.86 143.91,-60l0,-136c0,-33.14 -64.43,-60 -143.91,-60z" fill="#7f0000" id="svg_3"/>
   <mask height="155" id="mask0_1_2" maskUnits="userSpaceOnUse" width="200" x="58" y="51">
    <path d="m258,51l-200,0l0,154.93l200,0l0,-154.93z" fill="white" id="svg_4"/>
   </mask>
   <g id="svg_5" mask="url(#mask0_1_2)">
    <path d="m227.31,64.8c-12.75,-5.85 -26.42,-10.16 -40.71,-12.63c-0.26,-0.05 -0.52,0.07 -0.66,0.31c-1.75,3.13 -3.7,7.21 -5.06,10.41c-15.38,-2.3 -30.67,-2.3 -45.73,0c-1.36,-3.28 -3.38,-7.28 -5.15,-10.41c-0.13,-0.23 -0.39,-0.35 -0.65,-0.31c-14.28,2.46 -27.95,6.77 -40.71,12.63c-0.11,0.04 -0.2,0.12 -0.27,0.23c-25.93,38.73 -33.03,76.52 -29.54,113.83c0.01,0.19 0.11,0.36 0.26,0.47c17.1,12.56 33.67,20.19 49.94,25.25c0.26,0.08 0.53,-0.02 0.7,-0.23c3.85,-5.26 7.27,-10.8 10.22,-16.62c0.17,-0.34 0,-0.75 -0.35,-0.88c-5.44,-2.07 -10.62,-4.58 -15.6,-7.44c-0.4,-0.23 -0.43,-0.79 -0.06,-1.06c1.04,-0.79 2.09,-1.61 3.09,-2.43c0.18,-0.15 0.44,-0.18 0.65,-0.09c32.73,14.95 68.17,14.95 100.51,0c0.21,-0.1 0.47,-0.07 0.66,0.08c1,0.83 2.05,1.65 3.1,2.44c0.36,0.27 0.34,0.83 -0.05,1.06c-4.99,2.91 -10.16,5.37 -15.61,7.43c-0.36,0.13 -0.51,0.55 -0.34,0.89c3,5.81 6.43,11.35 10.21,16.61c0.15,0.22 0.44,0.32 0.7,0.24c16.34,-5.06 32.91,-12.69 50.02,-25.25c0.15,-0.11 0.24,-0.28 0.26,-0.46c4.17,-43.14 -6.99,-80.61 -29.57,-113.84c-0.06,-0.11 -0.15,-0.19 -0.26,-0.23zm-102.48,91.34c-9.85,0 -17.97,-9.05 -17.97,-20.16c0,-11.11 7.96,-20.15 17.97,-20.15c10.09,0 18.14,9.12 17.98,20.15c0,11.11 -7.97,20.16 -17.98,20.16zm66.46,0c-9.85,0 -17.97,-9.05 -17.97,-20.16c0,-11.11 7.96,-20.15 17.97,-20.15c10.09,0 18.13,9.12 17.97,20.15c0,11.11 -7.88,20.16 -17.97,20.16z" fill="white" id="svg_6"/>
   </g>
   <text fill="#ffffff" font-family="Serif" font-size="85" id="svg_9" stroke-width="0" text-anchor="middle" x="380" xml:space="preserve" y="152">d3x7</text>
  </g>
 </g>
</svg>
